svg/deb.svg

<?xml version="1.0" encoding="UTF-8"?>
<svg xmlns="http://www.w3.org/2000/svg" xmlns:xlink="http://www.w3.org/1999/xlink" width="32" height="32" viewBox="0 0 32 32">
<rect x="-3.2" y="-3.2" width="38.4" height="38.4" fill="rgb(100%, 100%, 100%)" fill-opacity="1"/>
<path fill-rule="nonzero" fill="rgb(0%, 0%, 0%)" fill-opacity="1" d="M 32 32 L 0 32 L 0 0 L 32 0 Z M 3.105469 28.800781 L 28.929688 28.800781 L 28.929688 3.199219 L 3.105469 3.199219 M 19.007812 17.214844 L 16 15.808594 L 22.015625 12.992188 L 25.023438 14.398438 L 22.015625 15.808594 Z M 22.015625 10.207031 L 19.007812 8.800781 L 16 10.207031 L 22.015625 13.023438 L 25.023438 11.617188 Z M 12.992188 14.398438 L 9.984375 12.992188 L 6.976562 14.398438 L 12.992188 17.214844 L 16 15.808594 Z M 12.992188 11.617188 L 16 10.207031 L 12.992188 8.800781 L 6.976562 11.617188 L 9.984375 13.023438 Z M 22.015625 16.640625 L 19.328125 17.886719 L 19.007812 18.046875 L 18.6875 17.886719 L 16 16.640625 L 13.3125 17.886719 L 12.992188 18.046875 L 12.671875 17.886719 L 9.984375 16.640625 L 9.984375 21.023438 L 16 24.160156 L 22.015625 21.023438 Z M 22.015625 16.640625 "/>
</svg>

<svg role="img" viewBox="0 0 32 32" xmlns="http://www.w3.org/2000/svg"><path d="M-3.2-3.2h38.4v38.4H-3.2z" fill="rgb(100%, 100%, 100%)"/><path d="M32 32H0V0h32ZM3.105 28.8H28.93V3.2H3.105m15.903 14.015L16 15.809l6.016-2.817 3.007 1.406-3.007 1.41Zm3.008-7.008-3.008-1.406L16 10.207l6.016 2.816 3.007-1.406Zm-9.024 4.191-3.008-1.406-3.007 1.406 6.015 2.817L16 15.809Zm0-2.78L16 10.206 12.992 8.8l-6.015 2.816 3.007 1.406Zm9.024 5.023-2.688 1.246-.32.16-.32-.16L16 16.64l-2.687 1.246-.32.16-.321-.16-2.688-1.246v4.382L16 24.16l6.016-3.137Zm0 0"/></svg>
